X:3214
L:1/8
Q:1/2=100
M:2/2
K:Gmix
 B |: G2 GB GBgB | G2 Gg Te2 (d/e/g) | G2 GB gaba | gedB A2 (GE) :| (gaba) gegd | (gaba) Te2 d2 | 
 (gaba) geba | gedB A2 (GE) :|

